app/dist/common/images/pangang-gp-vanadiu.svg

<svg height="18" viewBox="0 0 18 18" width="18" xmlns="http://www.w3.org/2000/svg"><path d="m0 0h18v18h-18z" fill="#f0f3fa"/><path d="m8.5 10.5h-5.5l1.33-2.5h3c0 .58.73.73 1.17.73v-1.73c0-.58-.5-1-1-1v-1h3v1c-.8 0-1 .7-1 1v1.73c.8 0 1.06-.49 1.17-.73h2.66l1.67 2.5h-5.5v.68c.27.73 2.39 1.03 3.5 1.1v.72h-8v-.73c2.13 0 3.17-.72 3.5-1.09z" fill="#d1011b"/></svg>

<!-- by TradingView --><svg width="18" height="18" viewBox="0 0 18 18" xmlns="http://www.w3.org/2000/svg"><path fill="#F0F3FA" d="M0 0h18v18H0z"/><path d="M8.5 10.5H3L4.33 8h3c0 .58.73.73 1.17.73V7c0-.58-.5-1-1-1V5h3v1c-.8 0-1 .7-1 1v1.73c.8 0 1.06-.49 1.17-.73h2.66L15 10.5H9.5v.68c.27.73 2.39 1.03 3.5 1.1V13H5v-.73c2.13 0 3.17-.72 3.5-1.09v-.68Z" fill="#D1011B"/></svg>
